flaticon/essential/alarm-clock.svg

<svg xmlns="http://www.w3.org/2000/svg" width="32" height="32" viewBox="0 0 24 24">
    <path d="M 16.539062 12.03125 L 13.59375 12.03125 C 13.441406 11.453125 12.988281 11.003906 12.414062 10.851562 L 12.414062 6.667969 C 12.414062 6.4375 12.226562 6.253906 12 6.253906 C 11.773438 6.253906 11.585938 6.4375 11.585938 6.667969 L 11.585938 10.851562 C 10.878906 11.035156 10.347656 11.675781 10.347656 12.445312 C 10.347656 13.355469 11.089844 14.09375 12 14.09375 C 12.765625 14.09375 13.40625 13.566406 13.59375 12.855469 L 16.539062 12.855469 C 16.765625 12.855469 16.953125 12.671875 16.953125 12.445312 C 16.953125 12.214844 16.769531 12.03125 16.539062 12.03125 Z M 12 13.269531 C 11.542969 13.269531 11.175781 12.898438 11.175781 12.445312 C 11.175781 11.988281 11.542969 11.617188 12 11.617188 C 12.453125 11.617188 12.824219 11.988281 12.824219 12.445312 C 12.824219 12.898438 12.453125 13.269531 12 13.269531 Z M 12 13.269531"/>
    <path d="M 20.710938 4.03125 L 22.402344 5.71875 C 22.480469 5.796875 22.585938 5.839844 22.695312 5.839844 C 22.804688 5.839844 22.910156 5.796875 22.988281 5.71875 C 24.292969 4.414062 24.292969 2.285156 22.988281 0.980469 C 21.679688 -0.328125 19.554688 -0.328125 18.246094 0.980469 C 18.167969 1.058594 18.125 1.164062 18.125 1.273438 C 18.125 1.382812 18.167969 1.488281 18.246094 1.5625 L 20.128906 3.445312 L 19.429688 4.148438 C 17.457031 2.378906 14.851562 1.300781 12 1.300781 C 9.148438 1.300781 6.546875 2.378906 4.574219 4.148438 L 3.871094 3.445312 L 5.753906 1.5625 C 5.832031 1.484375 5.875 1.382812 5.875 1.273438 C 5.875 1.164062 5.832031 1.058594 5.753906 0.980469 C 4.445312 -0.328125 2.320312 -0.328125 1.011719 0.980469 C -0.292969 2.285156 -0.292969 4.414062 1.011719 5.71875 C 1.089844 5.796875 1.195312 5.839844 1.304688 5.839844 C 1.414062 5.839844 1.519531 5.796875 1.597656 5.71875 L 3.289062 4.03125 L 3.980469 4.722656 C 2.046875 6.726562 0.855469 9.449219 0.855469 12.445312 C 0.855469 16.527344 3.066406 20.105469 6.355469 22.046875 L 5.105469 23.296875 C 4.945312 23.457031 4.945312 23.71875 5.105469 23.878906 C 5.183594 23.960938 5.289062 24 5.398438 24 C 5.503906 24 5.609375 23.960938 5.6875 23.878906 L 7.113281 22.457031 C 8.589844 23.179688 10.246094 23.585938 12 23.585938 C 13.753906 23.585938 15.410156 23.179688 16.886719 22.457031 L 18.3125 23.878906 C 18.390625 23.960938 18.496094 24 18.601562 24 C 18.707031 24 18.8125 23.960938 18.894531 23.878906 C 19.054688 23.71875 19.054688 23.457031 18.894531 23.296875 L 17.644531 22.046875 C 20.933594 20.105469 23.144531 16.527344 23.144531 12.445312 C 23.144531 9.449219 21.953125 6.726562 20.019531 4.722656 Z M 22.402344 1.5625 C 23.289062 2.449219 23.378906 3.835938 22.671875 4.820312 L 19.144531 1.296875 C 20.132812 0.589844 21.515625 0.675781 22.402344 1.5625 Z M 1.328125 4.820312 C 0.621094 3.835938 0.710938 2.449219 1.597656 1.5625 C 2.480469 0.679688 3.867188 0.589844 4.855469 1.296875 Z M 12 22.761719 C 6.3125 22.761719 1.683594 18.132812 1.683594 12.445312 C 1.683594 6.753906 6.3125 2.125 12 2.125 C 17.6875 2.125 22.316406 6.753906 22.316406 12.445312 C 22.316406 18.132812 17.6875 22.761719 12 22.761719 Z M 12 22.761719"/>
    <path d="M12 4.140625C12.226562 4.140625 12.414062 3.957031 12.414062 3.726562L12.414062 3.316406C12.414062 3.085938 12.226562 2.902344 12 2.902344 11.773438 2.902344 11.585938 3.085938 11.585938 3.316406L11.585938 3.726562C11.585938 3.957031 11.773438 4.140625 12 4.140625zM12 20.648438C11.773438 20.648438 11.585938 20.832031 11.585938 21.0625L11.585938 21.472656C11.585938 21.703125 11.773438 21.886719 12 21.886719 12.226562 21.886719 12.414062 21.703125 12.414062 21.472656L12.414062 21.0625C12.414062 20.832031 12.226562 20.648438 12 20.648438zM20.667969 12.808594L21.078125 12.808594C21.308594 12.808594 21.492188 12.621094 21.492188 12.394531 21.492188 12.167969 21.308594 11.980469 21.078125 11.980469L20.667969 11.980469C20.4375 11.980469 20.253906 12.167969 20.253906 12.394531 20.253906 12.621094 20.4375 12.808594 20.667969 12.808594zM3.332031 11.980469L2.921875 11.980469C2.691406 11.980469 2.507812 12.167969 2.507812 12.394531 2.507812 12.621094 2.691406 12.808594 2.921875 12.808594L3.332031 12.808594C3.5625 12.808594 3.746094 12.621094 3.746094 12.394531 3.746094 12.167969 3.5625 11.980469 3.332031 11.980469zM18.128906 5.683594L17.835938 5.972656C17.675781 6.136719 17.675781 6.394531 17.835938 6.558594 17.917969 6.636719 18.023438 6.679688 18.128906 6.679688 18.234375 6.679688 18.339844 6.636719 18.421875 6.558594L18.710938 6.265625C18.875 6.105469 18.875 5.84375 18.710938 5.683594 18.550781 5.519531 18.289062 5.519531 18.128906 5.683594zM5.578125 18.230469L5.289062 18.523438C5.125 18.683594 5.125 18.945312 5.289062 19.105469 5.367188 19.1875 5.472656 19.226562 5.578125 19.226562 5.683594 19.226562 5.792969 19.1875 5.871094 19.105469L6.164062 18.8125C6.324219 18.652344 6.324219 18.390625 6.164062 18.230469 6.003906 18.070312 5.742188 18.070312 5.578125 18.230469zM18.421875 18.230469C18.257812 18.070312 17.996094 18.070312 17.835938 18.230469 17.675781 18.390625 17.675781 18.652344 17.835938 18.8125L18.128906 19.105469C18.207031 19.1875 18.316406 19.226562 18.421875 19.226562 18.527344 19.226562 18.632812 19.1875 18.710938 19.105469 18.875 18.945312 18.875 18.683594 18.710938 18.523438zM5.871094 5.683594C5.710938 5.519531 5.449219 5.519531 5.289062 5.683594 5.125 5.84375 5.125 6.105469 5.289062 6.265625L5.578125 6.558594C5.660156 6.636719 5.765625 6.679688 5.871094 6.679688 5.976562 6.679688 6.082031 6.636719 6.164062 6.558594 6.324219 6.394531 6.324219 6.136719 6.164062 5.972656zM5.871094 5.683594"/>
</svg>

<svg xmlns="http://www.w3.org/2000/svg" width="32" height="32" viewBox="0 0 24 24">
    <path d="M16.54 12.031h-2.946a1.66 1.66 0 0 0-1.18-1.18V6.669a.414.414 0 0 0-.828 0v4.184a1.651 1.651 0 0 0-1.238 1.593c0 .91.742 1.649 1.652 1.649.766 0 1.406-.528 1.594-1.239h2.945a.412.412 0 1 0 0-.824zM12 13.27a.825.825 0 1 1 0-1.652c.453 0 .824.37.824.827a.827.827 0 0 1-.824.825zm0 0"/>
    <path d="M20.71 4.031l1.692 1.688a.414.414 0 0 0 .586 0 3.357 3.357 0 0 0 0-4.739 3.355 3.355 0 0 0-4.742 0 .414.414 0 0 0-.121.293c0 .11.043.215.121.29l1.883 1.882-.7.703A11.095 11.095 0 0 0 12 1.301a11.085 11.085 0 0 0-7.426 2.847l-.703-.703 1.883-1.882a.405.405 0 0 0 .121-.29.414.414 0 0 0-.121-.293 3.355 3.355 0 0 0-4.742 0 3.357 3.357 0 0 0 0 4.739.414.414 0 0 0 .586 0L3.289 4.03l.691.692a11.09 11.09 0 0 0-3.125 7.722c0 4.082 2.211 7.66 5.5 9.602l-1.25 1.25a.413.413 0 0 0 .582.582l1.426-1.422A11.08 11.08 0 0 0 12 23.586c1.754 0 3.41-.406 4.887-1.129l1.425 1.422a.41.41 0 0 0 .582-.582l-1.25-1.25c3.29-1.942 5.5-5.52 5.5-9.602a11.09 11.09 0 0 0-3.124-7.722zm1.692-2.468a2.53 2.53 0 0 1 .27 3.257l-3.527-3.523a2.53 2.53 0 0 1 3.257.266zM1.328 4.82a2.53 2.53 0 0 1 .27-3.258 2.534 2.534 0 0 1 3.257-.265zM12 22.762c-5.688 0-10.316-4.63-10.316-10.317 0-5.691 4.628-10.32 10.316-10.32 5.688 0 10.316 4.629 10.316 10.32 0 5.688-4.628 10.317-10.316 10.317zm0 0"/>
    <path d="M12 4.14a.414.414 0 0 0 .414-.413v-.41a.414.414 0 0 0-.828 0v.41c0 .23.187.414.414.414zm0 0M12 20.648a.414.414 0 0 0-.414.415v.41a.414.414 0 0 0 .828 0v-.41a.414.414 0 0 0-.414-.415zm0 0M20.668 12.809h.41a.414.414 0 0 0 0-.829h-.41a.414.414 0 0 0 0 .829zm0 0M3.332 11.98h-.41a.414.414 0 0 0 0 .829h.41a.414.414 0 0 0 0-.829zm0 0M18.129 5.684l-.293.289a.417.417 0 0 0 0 .586.428.428 0 0 0 .293.12c.105 0 .21-.042.293-.12l.289-.293a.406.406 0 0 0 0-.582.406.406 0 0 0-.582 0zm0 0M5.578 18.23l-.289.293a.406.406 0 0 0 0 .582.396.396 0 0 0 .29.122c.105 0 .214-.04.292-.122l.293-.293a.413.413 0 1 0-.586-.582zm0 0M18.422 18.23a.413.413 0 1 0-.586.582l.293.293a.404.404 0 0 0 .293.122c.105 0 .21-.04.289-.122a.406.406 0 0 0 0-.582zm0 0M5.871 5.684a.406.406 0 0 0-.582 0 .406.406 0 0 0 0 .582l.29.293a.428.428 0 0 0 .292.12c.106 0 .211-.042.293-.12a.417.417 0 0 0 0-.586zm0 0"/>
</svg>
